src/assets/filled/Photoshop.svg

<svg width="24" height="24" viewBox="0 0 24 24"  xmlns="http://www.w3.org/2000/svg">
<path d="M9.5 8.75H8.25V11.25H9.5C10.19 11.25 10.75 10.69 10.75 10C10.75 9.31 10.19 8.75 9.5 8.75Z" />
<path d="M16.19 2H7.82001C4.18001 2 2.01001 4.17 2.01001 7.81V16.18C2.01001 19.82 4.18001 21.99 7.82001 21.99H16.19C19.83 21.99 22 19.82 22 16.18V7.81C22 4.17 19.83 2 16.19 2ZM9.50001 12.75H8.25001V16C8.25001 16.41 7.91001 16.75 7.50001 16.75C7.09001 16.75 6.75001 16.41 6.75001 16V8C6.75001 7.59 7.09001 7.25 7.50001 7.25H9.50001C11.02 7.25 12.25 8.48 12.25 10C12.25 11.52 11.02 12.75 9.50001 12.75ZM15.25 12.75C16.35 12.75 17.25 13.65 17.25 14.75C17.25 15.85 16.35 16.75 15.25 16.75H14C13.59 16.75 13.25 16.41 13.25 16C13.25 15.59 13.59 15.25 14 15.25H15.25C15.53 15.25 15.75 15.03 15.75 14.75C15.75 14.47 15.53 14.25 15.25 14.25C14.15 14.25 13.25 13.35 13.25 12.25C13.25 11.15 14.15 10.25 15.25 10.25H16.5C16.91 10.25 17.25 10.59 17.25 11C17.25 11.41 16.91 11.75 16.5 11.75H15.25C14.97 11.75 14.75 11.97 14.75 12.25C14.75 12.53 14.97 12.75 15.25 12.75Z" />
</svg>

<?xml version="1.0" encoding="UTF-8"?>
<svg width="24" height="24" viewBox="0 0 24 24" xmlns="http://www.w3.org/2000/svg">
 <path d="m9.5 8.75h-1.25v2.5h1.25c0.69 0 1.25-0.56 1.25-1.25s-0.56-1.25-1.25-1.25z"/>
 <path d="m16.19 2h-8.37c-3.64 0-5.81 2.17-5.81 5.81v8.37c0 3.64 2.17 5.81 5.81 5.81h8.37c3.64 0 5.81-2.17 5.81-5.81v-8.37c0-3.64-2.17-5.81-5.81-5.81zm-6.69 10.75h-1.25v3.25c0 0.41-0.34 0.75-0.75 0.75s-0.75-0.34-0.75-0.75v-8c0-0.41 0.34-0.75 0.75-0.75h2c1.52 0 2.75 1.23 2.75 2.75s-1.23 2.75-2.75 2.75zm5.75 0c1.1 0 2 0.9 2 2s-0.9 2-2 2h-1.25c-0.41 0-0.75-0.34-0.75-0.75s0.34-0.75 0.75-0.75h1.25c0.28 0 0.5-0.22 0.5-0.5s-0.22-0.5-0.5-0.5c-1.1 0-2-0.9-2-2s0.9-2 2-2h1.25c0.41 0 0.75 0.34 0.75 0.75s-0.34 0.75-0.75 0.75h-1.25c-0.28 0-0.5 0.22-0.5 0.5s0.22 0.5 0.5 0.5z"/>
</svg>
